X:68
%%partsfont Times-Roman-Bold 15
T:Foot March ThFife.68, The
B:Thompson, C. & Thompson, S., 'The Compleat Tutor for the Fife', London, c.1765-1780.
S:Digitised by National Library of Scotland at: https://archive.org/details/nlsmusic
Z:vmp Roger Hare, 2019.
M:3/4
L:1/8
Q:3/4=60
K:G
P:1
G2 B2 d2 | f2 g2 z b | agfed>c | !trill!B6 | G2 B2 d2 | {d2}!fermata!c4 z e |
d4 ((3gfe) | d6 ]] [P:2d.] G2 B2 d2 | Ac !trill!e4 ]] [P:3d.] {e2}d4 ((3cdc) | !trill!B4 e2 | d^cde d2 |
gfe d3 ]][P:4th.] !trill!e4 fg | g2 !trill!f3 e | d^cde d2 | G2 BA B2 ]][P:5th.]  !fermata! !trill!e4 fg |
!fermata!e6 | cAeGFE | D3 cBA | ((3BAG) !invertedfermata!G4 ]][P:6th.] !fermata! !trill!e4 ((3dcB) | {d2}!fermata!^c4 (d/A/F/D/) |
((3ABc) !fermata! !trill!B4 | e2 dcBA | GFGA {G}F2 | ((3ABc) !fermata! !trill!B4 | ef g3 f | d4 ((3cBA) |
!invertedfermata!G4 g/d/B/G/ ]][P:7th.] !invertedfermata! !trill!G4 ((3GAB) | !invertedfermata! !trill!B4 ((3Bcd) | {d2}!invertedfermata! !trill!^c4 ((3cde) | d4 ((3cBA) |
!invertedfermata! !trill!G6 ]][P:8th.] !fermata! !trill!e4 fg | !fermata! !trill!d6 | ((3cBA) ((3BAG) G2 | fg {g}!fermata!f3 e | d3 fd^c |
!fermata!d2 G2 B2 | GABc d2 | f g3 !fermata!d2 | cBA G3 |]

